X:276
T:General Gathering 1745, The
R:Jig
C:Neil Gow
B:The Athole Collection
M:6/8
L:1/8
K:D
f|d2F FGF| ABc def|edc dcB|A2E E2f|d2F FGF|ABc def|edc dcB|A2F F2:|
d|AGF AGF|AGF ABc|dcB AGF|A2E E2B|AGF AGF|ABc def|edc dcB|
A2F F2d|AGF AGF|AGF ABc|dcB AGF|A2E E2B|AGF ABc|def efg|
agf edc|dAF F2||

